X:2381
T:Lullaby 
C:Miss Mary Gawne, Peel 
C:Traditional
O:Isle of Man
Z:Kiaull Vannin 381 
L:1/8
M:3/8 
Q:80 
K:D 
D/E/|F F D|G2 A|F F D|E D D/E/|F F D|E F G|E D D|D2:| 
A/B|=c2 B/A/|B2 A/G/|A2 A/G/|F D A/B/|=c2 B/A/|B2 A/G/|A d c|d2 A/B/| 
=c2 B/A/|B d B|A A G|F D D/E/|F F D|E F G|E D D|D2|| 

